img/card-img-4.svg

<svg width="324" height="280" viewBox="0 0 324 280" fill="none" xmlns="http://www.w3.org/2000/svg">
<path d="M74.7659 142.901L15.9227 176.852L114.974 234.003L191.741 189.716L113.385 144.502C101.952 137.909 84.6648 137.192 74.7659 142.901Z" fill="#ABA9A0"/>
<path d="M190.902 189.713L115.135 233.423L17.0841 176.855L75.1766 143.338C80.019 140.545 86.7131 139.304 93.6405 139.591C100.563 139.878 107.661 141.689 113.296 144.938C113.296 144.938 113.296 144.938 113.296 144.938L190.902 189.713Z" stroke="#3C2829"/>
<path d="M74.7659 136.164L15.9227 170.114L114.974 227.266L191.741 182.978L113.385 137.764C101.952 131.171 84.6648 130.455 74.7659 136.164Z" fill="#D3D2CE"/>
<path d="M74.8218 136.263C69.931 139.111 65.0218 141.934 60.1558 144.826C55.2898 147.717 50.43 150.652 45.564 153.525L30.9969 162.255L23.7134 166.624L16.399 170.949V169.293C24.6924 173.993 32.9611 178.748 41.205 183.559C49.4283 188.372 57.6022 193.278 65.8008 198.134L78.0864 205.443C82.198 207.853 86.2973 210.281 90.4523 212.666L96.6352 216.249L102.818 219.796L115.227 226.895H114.782L152.925 204.331L172.036 193.129L191.204 181.965V183.973C181.744 178.593 172.308 173.167 162.898 167.693L148.788 159.481C144.096 156.726 139.397 153.982 134.722 151.196L120.668 142.806L113.675 138.598C111.372 137.209 108.937 136.052 106.404 135.144C103.85 134.263 101.228 133.594 98.5643 133.142C95.8909 132.708 93.1854 132.501 90.477 132.525C87.773 132.546 85.0788 132.853 82.4392 133.439C79.7751 134.001 77.2084 134.953 74.8218 136.263V136.263ZM74.7105 136.065C77.1021 134.73 79.677 133.754 82.3526 133.167C85.0181 132.554 87.737 132.203 90.4708 132.117C93.206 132.046 95.9425 132.182 98.6571 132.525C101.38 132.897 104.068 133.488 106.695 134.292C109.319 135.139 111.854 136.242 114.263 137.585L121.41 141.539L135.681 149.466C140.435 152.117 145.165 154.81 149.901 157.498L164.073 165.604C173.508 171.025 182.929 176.474 192.335 181.952L194.072 182.972L192.335 183.96L173.087 194.946L153.821 205.888L115.196 227.618L114.98 227.741L114.776 227.618L102.416 220.469L96.2333 216.873L90.0504 213.314C85.9202 210.936 81.7652 208.606 77.6226 206.252L65.1454 199.271C56.8355 194.606 48.5009 190.003 40.2157 185.276C31.9306 180.55 23.6825 175.793 15.4839 170.973L14 170.096L15.4406 169.287L22.8602 165.122L30.2797 161.001L45.1188 152.759C50.0652 149.997 55.0116 147.285 59.9579 144.48C64.9043 141.675 69.795 138.913 74.7105 136.065V136.065Z" fill="#3C2829"/>
<path d="M74.9267 128.441L16.0835 162.391L115.134 219.536L191.902 175.243L113.545 130.041C102.113 123.467 84.8256 122.732 74.9267 128.441Z" fill="#D5EDF4"/>
<path d="M192.475 60.5206L133.632 94.4714L232.683 151.616L309.451 107.323L231.094 62.1208C219.662 55.5469 202.374 54.8117 192.475 60.5206Z" fill="#D5EDF4"/>
<path d="M74.9825 128.539C70.0918 131.381 65.1825 134.205 60.3165 137.097C55.4506 139.988 50.5908 142.898 45.7248 145.796L31.1577 154.532L23.8927 158.894L16.5783 163.219V161.557C24.8717 166.265 33.1301 171.025 41.3534 175.836C49.5767 180.649 57.7444 185.548 65.943 190.411L78.2348 197.714C82.3464 200.123 86.4457 202.551 90.6007 204.936L96.7836 208.526L102.967 212.073L115.376 219.165H114.949L153.092 196.602L172.21 185.4L191.377 174.242V176.25C181.88 170.862 172.424 165.435 163.009 159.969L148.9 151.758C144.207 149.003 139.508 146.259 134.834 143.467L120.829 135.082L113.836 130.881C111.532 129.494 109.096 128.337 106.565 127.427C104.004 126.547 101.376 125.873 98.7065 125.413C96.0331 124.979 93.3276 124.772 90.6192 124.795C87.9154 124.815 85.2213 125.119 82.5814 125.703C79.9222 126.269 77.3615 127.225 74.9825 128.539V128.539ZM74.8712 128.342C77.2616 127.004 79.8369 126.028 82.5134 125.444C85.1791 124.833 87.898 124.484 90.6316 124.4C93.3667 124.329 96.1033 124.465 98.8178 124.808C101.541 125.179 104.229 125.772 106.856 126.581C109.481 127.426 112.016 128.529 114.424 129.874L121.583 133.822L135.804 141.749C140.559 144.4 145.289 147.1 150.025 149.781L164.246 157.887C173.681 163.304 183.102 168.755 192.508 174.242L194.246 175.255L192.508 176.25L173.261 187.235L153.995 198.177L115.37 219.901L115.153 220.024L114.943 219.901L102.577 212.709L96.3941 209.113L90.2111 205.56C86.0809 203.182 81.926 200.846 77.7834 198.492L65.3186 191.511C57.0087 186.846 48.674 182.243 40.3889 177.516C32.1037 172.79 23.8556 168.038 15.657 163.219L14.1608 162.391L15.6014 161.576L23.0209 157.411L30.4405 153.29L45.2796 145.048C50.226 142.293 55.1723 139.574 60.1187 136.775C65.0651 133.976 69.9558 131.153 74.8712 128.342V128.342Z" fill="#3C2829"/>
<path d="M114.25 142.456L117.702 144.449L61.7507 176.723L58.3004 174.736L114.25 142.456Z" stroke="#3C2829"/>
<path d="M77.8081 153.711L49.3294 170.139L44.8777 167.569L73.3502 151.14L77.8081 153.711Z" fill="#3C2829"/>
<path d="M112.086 153.979L115.543 155.972L70.6607 181.863L67.2091 179.87L112.086 153.979Z" stroke="#3C2829"/>
<path d="M132.063 152.731L135.515 154.724L79.5641 187.004L76.1126 185.011L132.063 152.731Z" stroke="#3C2829"/>
<path d="M129.9 164.254L133.357 166.247L88.4738 192.144L85.0221 190.151L129.9 164.254Z" stroke="#3C2829"/>
<path d="M138.809 169.394L142.261 171.387L97.3773 197.279L93.9257 195.286L138.809 169.394Z" stroke="#3C2829"/>
<path d="M136.169 181.195L139.621 183.188L106.287 202.419L102.835 200.426L136.169 181.195Z" stroke="#3C2829"/>
<path d="M192.762 60.5884C187.871 63.4305 182.962 66.2541 178.096 69.1456C173.23 72.0371 168.37 74.9472 163.504 77.8449L148.937 86.5751L141.653 90.9433L134.345 95.2683V93.6062C142.63 98.3142 150.887 103.074 159.114 107.885C167.337 112.698 175.511 117.597 183.71 122.46L195.995 129.763C200.107 132.172 204.206 134.601 208.33 136.985L214.513 140.575L220.696 144.122L233.112 151.214H232.685L270.828 128.651L289.939 117.449L309.107 106.291V108.299C299.642 102.911 290.205 97.4843 280.795 92.0184L266.685 83.8072C261.992 81.0516 257.293 78.3083 252.619 75.5156L238.608 67.1252L231.64 62.9177C229.336 61.5309 226.9 60.374 224.369 59.4639C221.815 58.5893 219.196 57.9199 216.535 57.4621C213.86 57.0277 211.152 56.821 208.442 56.8442C205.738 56.8638 203.044 57.1682 200.404 57.7525C197.73 58.3138 195.154 59.2696 192.762 60.5884V60.5884ZM192.651 60.3907C195.041 59.0534 197.616 58.077 200.293 57.493C202.959 56.8831 205.677 56.5334 208.411 56.4488C211.146 56.3778 213.883 56.5141 216.597 56.8566C219.32 57.2288 222.008 57.8218 224.635 58.6298C227.258 59.4761 229.791 60.5792 232.197 61.9229L239.344 65.871L253.614 73.798C258.369 76.4486 263.099 79.1486 267.835 81.83L282.007 89.9362C291.442 95.3527 300.863 100.804 310.269 106.291L312.006 107.304L310.269 108.299L290.997 119.284L271.724 130.226L233.13 151.95L232.908 152.073L232.704 151.95L220.338 144.758L214.155 141.162L207.972 137.609C203.842 135.231 199.687 132.895 195.544 130.541L183.073 123.56C174.763 118.895 166.422 114.292 158.137 109.565C149.852 104.839 141.604 100.087 133.405 95.2683L131.94 94.428L133.387 93.6124L140.806 89.4481L148.226 85.3271L163.065 77.085C168.011 74.3294 172.958 71.6108 177.904 68.812C182.851 66.0131 187.741 63.2019 192.651 60.3907Z" fill="#3C2829"/>
<path d="M232.03 74.505L235.481 76.4978L179.536 108.778L176.079 106.785L232.03 74.505Z" stroke="#3C2829"/>
<path d="M195.587 85.7596L167.109 102.188L162.657 99.6179L191.136 83.1893L195.587 85.7596Z" fill="#3C2829"/>
<path d="M229.872 86.028L233.323 88.0207L188.44 113.912L184.988 111.92L229.872 86.028Z" stroke="#3C2829"/>
<path d="M249.843 84.7799L253.294 86.7727L197.343 119.053L193.892 117.06L249.843 84.7799Z" stroke="#3C2829"/>
<path d="M247.685 96.3028L251.136 98.2955L206.253 124.187L202.802 122.2L247.685 96.3028Z" stroke="#3C2829"/>
<path d="M256.588 101.443L260.04 103.436L215.157 129.328L211.705 127.335L256.588 101.443Z" stroke="#3C2829"/>
<path d="M253.948 113.244L257.4 115.237L224.066 134.468L220.615 132.475L253.948 113.244Z" stroke="#3C2829"/>
<path d="M174.893 125.345L162.879 132.271L150.872 125.345L146.42 127.909L158.428 134.842L146.42 141.774L150.872 144.338L162.879 137.412L174.893 144.338L179.345 141.768L167.337 134.842L179.345 127.909L174.893 125.345Z" fill="#877672"/>
<path d="M174.893 118.11L162.879 125.036L150.872 118.11L146.42 120.68L158.428 127.606L146.42 134.539L150.872 137.103L162.879 130.177L174.893 137.103L179.345 134.533L167.337 127.606L179.345 120.674L174.893 118.11Z" fill="white" stroke="#3C2829" stroke-width="1.17" stroke-miterlimit="10"/>
<path d="M192.725 48.9419L178.028 57.4621L163.355 66.0069L134.011 83.1213V82.6085L146.408 89.7261L158.774 96.9055L183.506 111.252L208.238 125.611C216.467 130.418 224.758 135.113 233.019 139.871H232.858L271.192 117.628L309.527 95.4289V96.0467L281.221 79.7108L267.075 71.5675L252.965 63.3502L238.862 55.1142C234.119 52.4575 229.587 49.3064 224.443 47.6074C219.286 45.8581 213.862 45.0217 208.417 45.136C205.697 45.1854 202.989 45.5125 200.336 46.1122C197.674 46.6793 195.11 47.6327 192.725 48.9419V48.9419ZM192.687 48.8801C195.074 47.5538 197.642 46.5858 200.311 46.0071C202.969 45.3943 205.683 45.0568 208.411 45C211.137 44.9452 213.864 45.1043 216.566 45.4758C219.266 45.8795 221.929 46.4993 224.53 47.3293C227.121 48.2003 229.621 49.3241 231.992 50.6843L239.06 54.7373L253.28 62.8312L267.439 70.9497L281.574 79.1115L309.848 95.4412L310.361 95.7378L309.848 96.0282L271.44 118.122L232.994 140.149L232.914 140.198L232.833 140.149C224.585 135.385 216.368 130.56 208.102 125.839L183.296 111.629L158.496 97.4183L146.086 90.2822L133.721 83.1213L133.275 82.8618L133.721 82.6085L163.219 65.7659L177.96 57.357L192.687 48.8801Z" fill="#3C2829"/>
<path d="M74.9455 117.048L60.2487 125.561L45.5765 134.112L16.2322 151.221V150.714L28.5981 157.832L40.964 165.011L65.6958 179.358L90.4277 193.716C98.6572 198.523 106.949 203.219 115.209 207.976H115.048L153.383 185.734L191.717 163.534V164.121L163.442 147.81L149.296 139.661L135.186 131.443L121.083 123.22C116.34 120.563 111.808 117.412 106.658 115.707C104.08 114.856 101.437 114.214 98.7561 113.785C96.0689 113.389 93.3539 113.211 90.6379 113.254C87.919 113.293 85.2112 113.61 82.5568 114.199C79.8933 114.769 77.3286 115.729 74.9455 117.048V117.048ZM74.9085 116.986C77.2948 115.659 79.8635 114.691 82.532 114.113C85.1909 113.505 87.9048 113.17 90.6317 113.112C93.3585 113.062 96.0851 113.223 98.787 113.594C101.484 113.994 104.145 114.61 106.744 115.435C109.336 116.306 111.836 117.43 114.207 118.79L121.305 122.849L135.483 130.943L149.654 139.037L163.795 147.199L192.069 163.528L192.582 163.825L192.069 164.115L153.655 186.21L115.215 208.248L115.135 208.298L115.054 208.248C106.806 203.485 98.583 198.659 90.3226 193.939L65.5165 179.728L40.7043 165.481L28.3013 158.388L15.9354 151.221L15.4902 150.967L15.9354 150.714L45.4343 133.872L60.1806 125.45L74.9085 116.986Z" fill="#3C2829"/>
</svg>

<svg xmlns="http://www.w3.org/2000/svg" width="324" height="280" fill="none"  xmlns:v="https://vecta.io/nano"><style><![CDATA[.B{stroke:#3c2829}.C{fill:#3c2829}]]></style><path d="M74.766 142.901l-58.843 33.951 99.051 57.151 76.767-44.287-78.356-45.214c-11.433-6.593-28.72-7.31-38.619-1.601z" fill="#aba9a0"/><path d="M190.902 189.713l-75.767 43.71-98.051-56.568 58.092-33.517c4.842-2.793 11.537-4.034 18.464-3.747s14.02 2.098 19.656 5.347l77.606 44.775z" class="B"/><path d="M74.766 136.164l-58.843 33.95 99.051 57.152 76.767-44.288-78.356-45.214c-11.433-6.593-28.72-7.309-38.619-1.6z" fill="#d3d2ce"/><path d="M74.822 136.263l-14.666 8.563-14.592 8.699-21.851 13.099-7.314 4.325v-1.656l24.806 14.266 24.596 14.575 12.286 7.309 12.366 7.223 6.183 3.583 6.183 3.547 12.409 7.099h-.445l38.143-22.564 19.111-11.202 19.168-11.164v2.008l-28.306-16.28-14.11-8.212-14.066-8.285-14.054-8.39-6.993-4.208a40.61 40.61 0 0 0-7.271-3.454c-2.554-.881-5.176-1.55-7.84-2.002-2.673-.434-5.379-.641-8.087-.617s-5.398.328-8.038.914c-2.664.562-5.231 1.514-7.617 2.824h0zm-.111-.198a27.98 27.98 0 0 1 7.642-2.898 42.13 42.13 0 0 1 8.118-1.05c2.735-.071 5.472.065 8.186.408a51.1 51.1 0 0 1 8.038 1.767c2.624.847 5.159 1.95 7.568 3.293l7.147 3.954 14.271 7.927 14.22 8.032 14.172 8.106 28.262 16.348 1.737 1.02-1.737.988-19.248 10.986-19.266 10.942-38.841 21.853-.204-.123-12.36-7.149-6.183-3.596-6.183-3.559-12.428-7.062-37.407-20.976L14 170.096l8.86-4.974 22.259-12.363 14.839-8.279 14.753-8.415z" class="C"/><path d="M74.927 128.441l-58.843 33.95 99.051 57.145 76.768-44.293-78.357-45.202c-11.432-6.574-28.719-7.309-38.618-1.6zm117.548-67.92l-58.843 33.951 99.051 57.145 76.768-44.293-78.357-45.202c-11.432-6.574-28.72-7.309-38.619-1.6z" fill="#d5edf4"/><path d="M74.983 128.539l-14.666 8.558-14.592 8.699-21.832 13.098-7.314 4.325v-1.662l24.775 14.279 36.881 21.878 12.366 7.222 6.183 3.59 6.183 3.547 12.409 7.092h-.427l38.143-22.563L172.21 185.4l19.167-11.158v2.008l-28.368-16.281-14.109-8.211-14.066-8.291-20.998-12.586c-2.304-1.387-4.74-2.544-7.271-3.454-2.561-.88-5.189-1.554-7.858-2.014a47.93 47.93 0 0 0-8.087-.618 38.53 38.53 0 0 0-8.038.908c-2.659.566-5.22 1.522-7.599 2.836h0zm-.111-.197c2.39-1.338 4.966-2.314 7.642-2.898 2.666-.611 5.385-.96 8.118-1.044a54.1 54.1 0 0 1 8.186.408 50.45 50.45 0 0 1 8.038 1.773 41.76 41.76 0 0 1 7.568 3.293l7.159 3.948 14.221 7.927 14.221 8.032 14.221 8.106 30 17.368-1.738.995-19.247 10.985-19.266 10.942-38.842 21.847-.21-.123-18.549-10.788-6.183-3.553-12.428-7.068-12.465-6.981-24.93-13.995-24.732-14.297-1.496-.828 1.441-.815 7.42-4.165 22.259-12.363 14.839-8.273 14.753-8.433z" class="C"/><path d="M114.25 142.456l3.452 1.993-55.951 32.274-3.45-1.987 55.95-32.28z" class="B"/><path d="M77.808 153.711l-28.479 16.428-4.452-2.57L73.35 151.14l4.458 2.571z" class="C"/><path d="M112.086 153.979l3.457 1.993-44.882 25.891-3.452-1.993 44.877-25.891zm19.977-1.248l3.452 1.993-55.951 32.28-3.451-1.993 55.95-32.28zm-2.163 11.523l3.457 1.993-44.883 25.897-3.452-1.993 44.878-25.897zm8.909 5.14l3.452 1.993-44.884 25.892-3.452-1.993 44.883-25.892zm-2.64 11.801l3.452 1.993-33.334 19.231-3.452-1.993 33.334-19.231z" class="B"/><path d="M192.762 60.588l-14.666 8.557-14.592 8.699-21.851 13.098-7.308 4.325v-1.662l24.769 14.279 36.881 21.878 12.335 7.222 6.183 3.59 6.183 3.547 12.416 7.092h-.427l38.143-22.563 19.111-11.202 19.168-11.158v2.008l-28.312-16.281-14.11-8.211-14.066-8.292-14.011-8.39-6.968-4.208c-2.304-1.387-4.74-2.544-7.271-3.454-2.554-.875-5.173-1.544-7.834-2.002-2.675-.434-5.383-.641-8.093-.618-2.704.02-5.398.324-8.038.908a27.55 27.55 0 0 0-7.642 2.836h0zm-.111-.198a27.77 27.77 0 0 1 7.642-2.898 42.26 42.26 0 0 1 8.118-1.044 54.16 54.16 0 0 1 8.186.408c2.723.372 5.411.965 8.038 1.773a41.89 41.89 0 0 1 7.562 3.293l7.147 3.948 14.27 7.927 14.221 8.032 14.172 8.106 29.999 17.368-1.737.995-38.545 21.927-38.816 21.847-.204-.123-18.549-10.788-6.183-3.553-12.428-7.068-37.407-20.976-24.732-14.297-1.465-.84 1.447-.816 7.419-4.164 22.259-12.363 14.839-8.273 14.747-8.421z" class="C"/><path d="M232.03 74.505l3.451 1.993-55.945 32.28-3.457-1.993 55.951-32.28z" class="B"/><path d="M195.587 85.76l-28.478 16.428-4.452-2.57 28.479-16.429 4.451 2.57z" class="C"/><path d="M229.872 86.028l3.451 1.993-44.883 25.891-3.452-1.992 44.884-25.892zm19.971-1.248l3.451 1.993-55.951 32.28-3.451-1.993 55.951-32.28zm-2.158 11.523l3.451 1.993-44.883 25.891-3.451-1.987 44.883-25.897zm8.903 5.14l3.452 1.993-44.883 25.892-3.452-1.993 44.883-25.892zm-2.64 11.801l3.452 1.993-33.334 19.231-3.451-1.993 33.333-19.231z" class="B"/><path d="M174.893 125.345l-12.014 6.926-12.007-6.926-4.452 2.564 12.008 6.933-12.008 6.932 4.452 2.564 12.007-6.926 12.014 6.926 4.452-2.57-12.008-6.926 12.008-6.933-4.452-2.564z" fill="#877672"/><path d="M174.893 118.11l-12.014 6.926-12.007-6.926-4.452 2.57 12.008 6.926-12.008 6.933 4.452 2.564 12.007-6.926 12.014 6.926 4.452-2.57-12.008-6.927 12.008-6.932-4.452-2.564z" fill="#fff" stroke-width="1.17" stroke-miterlimit="10" class="B"/><path d="M192.725 48.942l-14.697 8.52-44.017 25.659v-.513l12.397 7.118 61.83 35.885 24.781 14.26h-.161l38.334-22.243 38.335-22.199v.618l-28.306-16.336-14.146-8.143-28.213-16.453c-4.743-2.657-9.275-5.808-14.419-7.507-5.157-1.749-10.581-2.586-16.026-2.471-2.72.049-5.428.377-8.081.976-2.662.567-5.226 1.52-7.611 2.83h0zm-.038-.062a27.84 27.84 0 0 1 7.624-2.873c2.658-.613 5.372-.95 8.1-1.007s5.453.104 8.155.476a50.93 50.93 0 0 1 7.964 1.854 41.7 41.7 0 0 1 7.462 3.355l7.068 4.053 14.22 8.094 14.159 8.119 42.922 24.788-.513.29-76.934 44.17-.081-.049-24.731-14.31-62.016-35.557-12.811-7.42.446-.253 44.239-25.252 14.727-8.477zM74.946 117.048l-14.697 8.513-44.016 25.66v-.507l12.366 7.118 61.83 35.884 24.781 14.26h-.161l38.335-22.242 38.334-22.2v.587l-28.275-16.311-14.146-8.149-28.213-16.441c-4.743-2.657-9.275-5.808-14.425-7.513a50.83 50.83 0 0 0-7.902-1.922 50.23 50.23 0 0 0-8.118-.531 39.95 39.95 0 0 0-8.081.945 27.68 27.68 0 0 0-7.611 2.849h0zm-.037-.062a27.79 27.79 0 0 1 7.623-2.873 40.17 40.17 0 0 1 8.1-1.001 52.83 52.83 0 0 1 8.155.482 51.06 51.06 0 0 1 7.957 1.841 41.69 41.69 0 0 1 7.463 3.355l35.447 20.247 14.141 8.162 28.787 16.626-.513.29-76.934 44.183-.081-.05-24.731-14.309-62.021-35.551-12.366-7.167-.445-.254.445-.253 44.245-25.264 14.728-8.464z" class="C"/></svg>
